mimes/scalable/application-x-m4.svg

<?xml version="1.0" encoding="UTF-8" standalone="no"?>
<svg
   xmlns:dc="http://purl.org/dc/elements/1.1/"
   xmlns:cc="http://creativecommons.org/ns#"
   xmlns:rdf="http://www.w3.org/1999/02/22-rdf-syntax-ns#"
   xmlns:svg="http://www.w3.org/2000/svg"
   xmlns="http://www.w3.org/2000/svg"
   xmlns:sodipodi="http://sodipodi.sourceforge.net/DTD/sodipodi-0.dtd"
   xmlns:inkscape="http://www.inkscape.org/namespaces/inkscape"
   width="48"
   height="48"
   viewBox="0 0 12.7 12.7"
   version="1.1"
   id="svg4"
   sodipodi:docname="application-x-m4.svg"
   inkscape:version="0.92.3 (2405546, 2018-03-11)">
  <metadata
     id="metadata10">
    <rdf:RDF>
      <cc:Work
         rdf:about="">
        <dc:format>image/svg+xml</dc:format>
        <dc:type
           rdf:resource="http://purl.org/dc/dcmitype/StillImage" />
        <dc:title></dc:title>
      </cc:Work>
    </rdf:RDF>
  </metadata>
  <defs
     id="defs8" />
  <sodipodi:namedview
     pagecolor="#ffffff"
     bordercolor="#666666"
     borderopacity="1"
     objecttolerance="10"
     gridtolerance="10"
     guidetolerance="10"
     inkscape:pageopacity="0"
     inkscape:pageshadow="2"
     inkscape:window-width="1366"
     inkscape:window-height="715"
     id="namedview6"
     showgrid="false"
     showguides="true"
     inkscape:guide-bbox="true"
     inkscape:snap-global="true"
     inkscape:zoom="3.8817216"
     inkscape:cx="24"
     inkscape:cy="24"
     inkscape:window-x="0"
     inkscape:window-y="27"
     inkscape:window-maximized="1"
     inkscape:current-layer="svg4" />
  <path
     inkscape:connector-curvature="0"
     style="opacity:1;fill:#a02c2c;fill-opacity:1;fill-rule:nonzero;stroke:none;stroke-width:0.50711805;stroke-linecap:round;stroke-linejoin:bevel;stroke-miterlimit:4;stroke-dasharray:none;stroke-opacity:1"
     d="m 7.3492433,0.0566603 c -0.040983,0 -0.078161,0.0127642 -0.1049033,0.0330729 C 7.218411,0.1094229 7.202933,0.1367362 7.201965,0.1667311 7.3445127,0.2235372 7.4736634,0.30302596 7.5802366,0.40909358 7.76971,0.59766786 7.8931916,0.85276088 7.9104491,1.1392812 h 0.00672 v 0.068213 0.1441772 0.1369425 0.1927531 c 0,0.2812905 0.2266883,0.5079794 0.5079795,0.5079794 h 0.1183391 l -5.291e-4,0.00568 h 1.6924064 c 0.329951,0 0.613684,0.1491999 0.819072,0.3731038 V 1.141865 0.56463964 c 0,-0.14064565 -0.05654,-0.26789289 -0.148312,-0.35966798 C 10.814345,0.11319656 10.687101,0.0566603 10.546455,0.0566603 H 9.0462851 7.7864139 Z"
     id="path965" />
  <path
     style="opacity:1;fill:#333333;fill-opacity:1;fill-rule:nonzero;stroke:none;stroke-width:0.50711805;stroke-linecap:round;stroke-linejoin:bevel;stroke-miterlimit:4;stroke-dasharray:none;stroke-opacity:1"
     d="m 2.9460732,0.55206094 c -0.6285519,0 -1.134298,0.50626306 -1.134298,1.13481446 v 9.9012056 c 0,0.628551 0.5057461,1.134814 1.134298,1.134814 h 4.2855261 2.522327 c 0.6285527,0 1.1342987,-0.506263 1.1342987,-1.134814 V 3.6728008 h -0.01292 C 10.810197,3.1070068 10.337709,2.6687276 9.7539263,2.6687276 h -1.692403 v 0 l -0.11781,-0.00568 C 7.6627483,2.6495013 7.4357343,2.4363589 7.4357343,2.1550682 V 1.9623107 1.8253682 1.6811909 1.612978 h -0.0067 C 7.3941823,1.0346118 6.9321933,0.5804805 6.3510473,0.55464473 l -5.29e-4,-0.002585 h -0.02015 z"
     id="path833"
     inkscape:connector-curvature="0" />
  <path
     style="opacity:1;fill:#cccccc;fill-opacity:1;fill-rule:nonzero;stroke:none;stroke-width:0.50711805;stroke-linecap:round;stroke-linejoin:bevel;stroke-miterlimit:4;stroke-dasharray:none;stroke-opacity:1"
     d="m 6.4269983,1.0791605 c 0.263277,0.019482 0.470254,0.2359637 0.470255,0.504362 v 0.2563151 0.125057 0.092501 c 0,0.5757933 0.427721,1.0388807 0.982369,1.1136271 v 0 l 1.962134,0.026872 c 0.2812647,0.00385 0.5079787,0.2266886 0.5079797,0.5079793 V 5.7894678 11.68575 c 0,0.281291 -0.226688,0.50798 -0.5079797,0.50798 H 7.2315993 2.8582236 c -0.281291,0 -0.50798,-0.226689 -0.50798,-0.50798 V 1.5892069 c 0,-0.2812907 0.226689,-0.5079794 0.50798,-0.5079794 h 3.5692907 z"
     id="path901-5"
     inkscape:connector-curvature="0" />
  <path
     inkscape:connector-curvature="0"
     style="line-height:normal;text-indent:0;text-align:start;text-decoration:none;text-decoration-line:none;text-transform:none;fill:#a02c2c;fill-opacity:1;stroke-width:0.26458332;marker:none"
     d="M 5.6406538,5.2736781 5.3800776,5.9069195 A 1.6052153,1.6052153 0 0 0 5.0541507,5.9429037 L 4.6686634,5.383699 A 2.2235831,2.2235831 0 0 0 4.2831762,5.5702384 l 0.1629634,0.656404 A 1.620039,1.620039 0 0 0 4.2070714,6.4446162 L 3.5672122,6.2225063 A 2.2129945,2.2129945 0 0 0 3.3575106,6.5993076 l 0.517016,0.4322253 A 1.5459196,1.5459196 0 0 0 3.8319241,7.1858107 1.5628613,1.5628613 0 0 0 3.8108297,7.344638 L 3.1672485,7.5419311 c 0,0.1461212 0.014609,0.2879079 0.044257,0.427676 l 0.6779114,0.046325 c 0.033882,0.1016495 0.078124,0.1992456 0.1331833,0.2924241 L 3.6160186,8.8485344 C 3.7007266,8.9650077 3.7918041,9.0749799 3.897689,9.172394 L 4.4717837,8.8080005 c 0.088943,0.063532 0.1841571,0.1164238 0.2858065,0.1608953 l -0.00662,0.6820476 a 2.280761,2.280761 0 0 0 0.4111326,0.08479 l 0.262645,-0.6311728 c 0.1080026,-0.00209 0.217974,-0.014761 0.3238589,-0.03805 L 6.1340942,9.6257154 A 2.2151124,2.2151124 0 0 0 6.5195815,9.4391739 L 6.3582722,8.7827701 C 6.4429804,8.7192394 6.5236844,8.6452685 6.5956863,8.5647963 L 7.2351318,8.7869064 A 2.2129945,2.2129945 0 0 0 7.4427654,8.4163092 l 0.1207749,0.258508 A 0.94449342,0.94449342 0 0 0 7.4535194,8.8270267 L 7.061414,8.7740849 A 1.2917958,1.2917958 0 0 0 6.985309,9.013567 l 0.3453667,0.1865389 a 0.90213942,0.90213942 0 0 0 -0.00662,0.09306 c 0,0.03176 0.00238,0.06341 0.00662,0.09306 L 6.9853096,9.5727646 c 0.019061,0.08471 0.042221,0.162831 0.076104,0.239068 l 0.3921048,-0.05294 c 0.031764,0.05506 0.069786,0.106035 0.1100217,0.1526239 l -0.169581,0.3577755 c 0.063532,0.05506 0.1269463,0.106083 0.1989479,0.150555 l 0.2862198,-0.275466 c 0.057179,0.02753 0.1184588,0.04644 0.18199,0.05915 l 0.076104,0.392106 a 1.3299144,1.3299144 0 0 0 0.245686,0 l 0.074037,-0.392106 c 0.063531,-0.01271 0.1273434,-0.03373 0.1824034,-0.05915 l 0.2858069,0.275466 c 0.072001,-0.04235 0.1354164,-0.09544 0.1989474,-0.152623 L 8.954934,9.9115197 A 0.95296413,0.95296413 0 0 0 9.0649552,9.7588966 l 0.3916915,0.05294 A 1.2917958,1.2917958 0 0 0 9.5327478,9.5727675 L 9.1877983,9.3862318 a 0.83437307,0.83437307 0 0 0 0,-0.1861259 L 9.5327515,9.0114979 A 1.2917958,1.2917958 0 0 0 9.4566467,8.7740844 L 9.0649552,8.8249587 A 0.94449342,0.94449342 0 0 0 8.954934,8.6748172 L 9.1241017,8.3166283 A 1.298149,1.298149 0 0 0 8.9251539,8.1644188 L 8.6372793,8.4394714 A 0.93814027,0.93814027 0 0 0 8.4569443,8.3823928 L 8.3829075,7.9907013 a 1.3299144,1.3299144 0 0 0 -0.1228431,-0.0062 c -0.042354,0 -0.084725,0.00198 -0.1228431,0.00619 L 8.0611173,8.3823949 A 0.93602262,0.93602262 0 0 0 7.8791274,8.439474 L 7.5929069,8.164423 A 1.298149,1.298149 0 0 0 7.396027,8.3166325 L 7.436561,8.4014225 6.930299,7.9778833 A 1.4209756,1.4209756 0 0 0 6.993582,7.6668423 L 7.6375771,7.4695489 A 2.2129945,2.2129945 0 0 0 7.5908387,7.0418732 L 6.915409,6.9955485 A 1.620039,1.620039 0 0 0 6.7818116,6.7031244 L 7.188807,6.1608778 A 2.2341716,2.2341716 0 0 0 6.904655,5.839087 L 6.3309738,6.2014117 A 1.6073329,1.6073329 0 0 0 6.0472354,6.0425846 l 0.0062,-0.6841161 A 2.280761,2.280761 0 0 0 5.8482876,5.3075942 C 5.780521,5.2927703 5.7084202,5.2863842 5.6406538,5.2736781 Z M 5.3548472,6.5442969 a 0.96143495,0.96143495 0 0 1 0.00619,0 0.96143495,0.96143495 0 0 1 0.2328642,0.019025 0.96171848,0.96171848 0 0 1 -0.3834175,1.8848343 0.96143495,0.96143495 0 0 1 0.144351,-1.9017922 z m 2.9052172,2.1875989 a 0.56127301,0.56127301 0 0 1 0,1.1225458 0.56127301,0.56127301 0 0 1 0,-1.1225458 z"
     id="path821" />
</svg>

<?xml version="1.0" encoding="UTF-8" standalone="no"?><svg xmlns:dc="http://purl.org/dc/elements/1.1/" xmlns:cc="http://creativecommons.org/ns#" xmlns:rdf="http://www.w3.org/1999/02/22-rdf-syntax-ns#" xmlns="http://www.w3.org/2000/svg" width="48" height="48" viewBox="0 0 12.7 12.7"><metadata><rdf:RDF><cc:Work><dc:format>image/svg+xml</dc:format><dc:type rdf:resource="http://purl.org/dc/dcmitype/StillImage"/><dc:title/></cc:Work></rdf:RDF></metadata><path d="M7.35.06a.17.17 0 0 0-.1.03.1.1 0 0 0-.05.08 1.12 1.12 0 0 1 .71.97v.55c0 .27.23.5.52.5h1.81c.33 0 .6.15.81.38V.56a.5.5 0 0 0-.5-.5H7.79z" fill="#a02c2c"/><path d="M2.95.55c-.63 0-1.14.5-1.14 1.14v9.9c0 .63.5 1.13 1.14 1.13H9.75c.63 0 1.14-.5 1.14-1.13V3.67h-.01c-.07-.56-.54-1-1.13-1H7.94a.52.52 0 0 1-.5-.51V1.6h-.01A1.12 1.12 0 0 0 6.35.55h-.02z" fill="#333"/><path d="M6.43 1.08a.5.5 0 0 1 .47.5v.48c0 .57.42 1.04.98 1.11l1.96.03c.28 0 .51.22.51.5v7.99a.5.5 0 0 1-.5.5H2.85a.5.5 0 0 1-.51-.5V1.59c0-.28.23-.5.5-.5h3.58z" fill="#ccc"/><path style="line-height:normal;text-indent:0;text-align:start;text-decoration-line:none;text-transform:none;marker:none" d="M5.64 5.27l-.26.64a1.6 1.6 0 0 0-.33.03l-.38-.56a2.22 2.22 0 0 0-.39.19l.17.66a1.62 1.62 0 0 0-.24.21l-.64-.22a2.21 2.21 0 0 0-.21.38l.51.43a1.55 1.55 0 0 0-.04.16 1.56 1.56 0 0 0-.02.15l-.64.2c0 .15.01.29.04.43l.68.05c.03.1.08.2.13.29l-.4.54c.08.12.17.22.28.32l.57-.36.29.16v.68a2.28 2.28 0 0 0 .4.09l.26-.64.33-.03.38.56a2.22 2.22 0 0 0 .39-.2l-.16-.65c.08-.06.16-.13.24-.22l.64.23a2.21 2.21 0 0 0 .2-.37l.12.25a.94.94 0 0 0-.1.16l-.4-.06a1.3 1.3 0 0 0-.07.24l.34.19a.9.9 0 0 0 0 .1v.09L7 9.57c.01.09.04.17.07.24l.4-.05a1 1 0 0 0 .1.15l-.17.36.2.15.29-.28.18.06.08.4a1.33 1.33 0 0 0 .24 0l.08-.4a.84.84 0 0 0 .18-.06l.29.28c.07-.04.13-.1.2-.15l-.18-.36a.95.95 0 0 0 .11-.15l.4.05a1.3 1.3 0 0 0 .07-.24L9.2 9.4a.83.83 0 0 0 0-.19l.34-.19a1.3 1.3 0 0 0-.07-.24l-.4.05a.94.94 0 0 0-.1-.15l.16-.35a1.3 1.3 0 0 0-.2-.16l-.28.28a.94.94 0 0 0-.18-.06L8.38 8a1.33 1.33 0 0 0-.12 0h-.12l-.08.4a.94.94 0 0 0-.18.05l-.29-.28a1.3 1.3 0 0 0-.2.16l.05.08-.51-.42a1.42 1.42 0 0 0 .06-.31l.65-.2a2.21 2.21 0 0 0-.05-.43L6.92 7a1.62 1.62 0 0 0-.14-.3l.4-.54a2.23 2.23 0 0 0-.28-.32l-.57.36a1.6 1.6 0 0 0-.28-.16v-.68a2.28 2.28 0 0 0-.2-.05l-.2-.04zm-.29 1.27a.96.96 0 0 1 .01 0 .96.96 0 0 1 .23.02.96.96 0 0 1-.38 1.89.96.96 0 0 1 .14-1.9zm2.91 2.2a.56.56 0 0 1 0 1.11.56.56 0 0 1 0-1.12z" fill="#a02c2c"/></svg>
